X:1
T:Frankie and Albert
M:4/4
L:1/4
K:F
 F3/2 G/2A/2 G/2 A| A/2 F/2- F2 z| A3/2 G/2A/2 A F/2-| F2 z2| B/2 B B/2 d d|\
 d/2 B3/2 z d/2d/2| d d c B| A F F F| G2 z2| z A3/4 G/4 A3/4- F/4 G|\
 F2 z2|
